public/assets/chains/mode.svg

<?xml version="1.0" encoding="UTF-8" standalone="no"?>
<svg
   width="42.139565"
   height="40"
   viewBox="0 0 42.139565 40"
   fill="none"
   version="1.1"
   id="svg2"
   sodipodi:docname="mode.svg"
   inkscape:version="1.3.1 (9b9bdc1480, 2023-11-25, custom)"
   xmlns:inkscape="http://www.inkscape.org/namespaces/inkscape"
   xmlns:sodipodi="http://sodipodi.sourceforge.net/DTD/sodipodi-0.dtd"
   xmlns="http://www.w3.org/2000/svg"
   xmlns:svg="http://www.w3.org/2000/svg">
  <defs
     id="defs2" />
  <sodipodi:namedview
     id="namedview2"
     pagecolor="#ffffff"
     bordercolor="#666666"
     borderopacity="1.0"
     inkscape:showpageshadow="2"
     inkscape:pageopacity="0.0"
     inkscape:pagecheckerboard="0"
     inkscape:deskcolor="#d1d1d1"
     inkscape:zoom="5.3484848"
     inkscape:cx="65.813031"
     inkscape:cy="20.005666"
     inkscape:window-width="1920"
     inkscape:window-height="1011"
     inkscape:window-x="0"
     inkscape:window-y="0"
     inkscape:window-maximized="1"
     inkscape:current-layer="svg2" />
  <rect
     width="42.139565"
     height="40"
     fill="#000000"
     id="rect1"
     x="0"
     y="0"
     style="stroke-width:0.565013" />
  <path
     d="m 5,5 v 30 h 6.294922 V 20.050781 L 8.7792969,11.523438 10.572266,10.853516 18.748047,35 h 4.789062 l 8.175782,-24.146484 1.791015,0.669922 -2.515625,8.527343 V 35 h 6.296875 V 5 h -9.375 l -5.814453,17.171875 v 5.037109 h -1.90625 V 22.171875 L 14.375,5 Z"
     style="fill:#dffe00"
     id="path5" />
</svg>

<svg width="132" height="40" viewBox="0 0 132 40" fill="none" xmlns="http://www.w3.org/2000/svg">
<rect width="132" height="40" fill="#000000"/>
<path d="M70.5185 20C70.5185 28.2843 64.1224 35 56.2325 35C48.3426 35 41.9465 28.2843 41.9465 20C41.9465 11.7157 48.3426 5 56.2325 5C64.1224 5 70.5185 11.7157 70.5185 20Z" fill="#DFFE00"/>
<path d="M27.9096 5L22.0954 22.1713V27.2093H20.189V22.1713L14.3749 5H5V35H11.2957V20.0507L8.78001 11.5226L10.5716 10.8539L18.7475 34.9992H23.537L31.7128 10.8539L33.5044 11.5226L30.9888 20.0507V35H37.2844V5H27.9096ZM97.0827 8.41077C95.5489 7.21056 93.753 6.34204 91.6956 5.80523C89.6375 5.26841 87.4646 5 85.1777 5H75.7346V35H86.0259C88.1509 35 90.1821 34.6752 92.119 34.0255C94.0558 33.3758 95.7646 32.4227 97.244 31.1653C98.7233 29.9086 99.9005 28.3546 100.775 26.5047C101.649 24.6548 102.086 22.5152 102.086 20.085C102.086 17.3453 101.635 15.015 100.735 13.0934C99.833 11.1726 98.6158 9.61251 97.082 8.41153L97.0827 8.41077ZM94.7624 24.0463C94.2381 25.2191 93.5177 26.1646 92.6034 26.8852C91.6883 27.6058 90.6062 28.1213 89.355 28.4324C88.1044 28.7435 86.7529 28.8983 85.2997 28.8983H82.0309V11.1017H85.7441C87.0615 11.1017 88.3194 11.2786 89.5169 11.6317C90.7137 11.9855 91.7566 12.5147 92.6448 13.2208C93.5322 13.9269 94.2388 14.8244 94.7632 15.9117C95.2882 16.9991 95.5504 18.2778 95.5504 19.7465C95.5504 21.4416 95.2882 22.8751 94.7632 24.0479L94.7624 24.0463ZM112.901 28.8983V22.7966H125.291V16.6948H112.901V11.1017H126.743V5H106.606V35H126.743V28.8983H112.901Z" fill="#DFFE00"/>
</svg>
